X:219
T:Morning Star
R:hp 24
C:Trad. ed. Barry Callaghan
S:'Hard Core English' page 43B
O:England
Q:1/4=140
B:Hard Core English ISBN 978 085418 201 5
Z:PJHeadford 2008
M:4/4
L:1/8
Q:1/4=140
K:G
|:dc|BdBG E2FG|ABAF D2dc|BdBG EFGE|D2F2 G2:|
|:GA|B2dd g2e2|dcBA G3B|B2d2 g2e2|f2d2 d3c|
B2d2 g2e2|dcBA GFGA|BdBE EFGE|D2F2 G2:|]
W:Collected by C Sharp from Wm Hathaway (Lower Swell) James Lock
W:(Newent). No idea why the repeats are like this.

